X: 11077
T: Duchess, The
R: reel
M: 4/4
K: Eminor
|:[M:7/8] e2 ed egf|[M:9/8] dz dd Bed Bd|[M:7/8] e2 ed egf|[M:9/8] Bz BB AA/B/d AG|
[M:7/8] e2 ed egf|[M:9/8] dz dd Bed Bd|[M:7/8] g2 fd edB|[M:9/8] Az AA GA/B/d AB:|
|:[M:7/8] G2 GG GAB|[M:9/8] dz Bd eed BA|[M:7/8] G2 GG dBG|[M:9/8] Fz FF GAG GA|
[M:7/8] G2 GG GAB|[M:9/8] dz Bd eed Bd|[M:7/8] g2 fd edB|[M:9/8] Az AA GA/B/d AB:|

